48x48/apps/sc_ide.svg

<svg height="48" width="48" xmlns="http://www.w3.org/2000/svg"><circle cx="24" cy="25" opacity=".2" r="20"/><circle cx="24" cy="24" fill="#575757" r="20"/><circle cx="24" cy="25" opacity=".2" r="16"/><path d="m24 4a20 20 0 0 0 -20 20 20 20 0 0 0 .021.582 20 20 0 0 1 19.979-19.582 20 20 0 0 1 19.979 19.418 20 20 0 0 0 .021-.418 20 20 0 0 0 -20-20z" fill="#f4f4f7" opacity=".1"/><circle cx="24" cy="24" fill="#6e6e6e" r="16"/><circle cx="24" cy="25" opacity=".2" r="12"/><circle cx="24" cy="24" fill="#818181" r="12"/><circle cx="24" cy="25" opacity=".2" r="8"/><circle cx="24" cy="24" fill="#a4a4a4" r="8"/><circle cx="24" cy="25" opacity=".2" r="4"/><g fill="#f4f4f7"><circle cx="24" cy="24" r="4"/><path d="m24 8a16 16 0 0 0 -16 16 16 16 0 0 0 .021.58 16 16 0 0 1 15.979-15.58 16 16 0 0 1 15.979 15.42 16 16 0 0 0 .021-.42 16 16 0 0 0 -16-16z" opacity=".1"/><path d="m24 12a12 12 0 0 0 -12 12 12 12 0 0 0 .02.594 12 12 0 0 1 11.98-11.594 12 12 0 0 1 11.98 11.406 12 12 0 0 0 .02-.406 12 12 0 0 0 -12-12z" opacity=".1"/><path d="m24 16a8 8 0 0 0 -8 8 8 8 0 0 0 .021.576 8 8 0 0 1 7.979-7.576 8 8 0 0 1 7.979 7.424 8 8 0 0 0 .021-.424 8 8 0 0 0 -8-8z" opacity=".1"/></g></svg>

<svg height="48" width="48" xmlns="http://www.w3.org/2000/svg">
    <circle cx="24" cy="25" opacity=".2" r="20"/>
    <circle cx="24" cy="24" fill="#575757" r="20"/>
    <circle cx="24" cy="25" opacity=".2" r="16"/>
    <path d="M24 4A20 20 0 0 0 4 24a20 20 0 0 0 .021.582A20 20 0 0 1 24 5a20 20 0 0 1 19.979 19.418A20 20 0 0 0 44 24 20 20 0 0 0 24 4z" fill="#f4f4f7" opacity=".1"/>
    <circle cx="24" cy="24" fill="#6e6e6e" r="16"/>
    <circle cx="24" cy="25" opacity=".2" r="12"/>
    <circle cx="24" cy="24" fill="#818181" r="12"/>
    <circle cx="24" cy="25" opacity=".2" r="8"/>
    <circle cx="24" cy="24" fill="#a4a4a4" r="8"/>
    <circle cx="24" cy="25" opacity=".2" r="4"/>
    <g fill="#f4f4f7">
        <circle cx="24" cy="24" r="4"/>
        <path d="M24 8A16 16 0 0 0 8 24a16 16 0 0 0 .021.58A16 16 0 0 1 24 9a16 16 0 0 1 15.979 15.42A16 16 0 0 0 40 24 16 16 0 0 0 24 8z" opacity=".1"/>
        <path d="M24 12a12 12 0 0 0-12 12 12 12 0 0 0 .02.594A12 12 0 0 1 24 13a12 12 0 0 1 11.98 11.406A12 12 0 0 0 36 24a12 12 0 0 0-12-12z" opacity=".1"/>
        <path d="M24 16a8 8 0 0 0-8 8 8 8 0 0 0 .021.576A8 8 0 0 1 24 17a8 8 0 0 1 7.979 7.424A8 8 0 0 0 32 24a8 8 0 0 0-8-8z" opacity=".1"/>
    </g>
</svg>
